!!!OTL: Der junge Husare (31), S. 115f
!!!id: T0156
**kern
*clefG2
*k[]
*e:
{8a
=1
8a
8a
16a
16a
8a
8g
8a
=2
4g
8f
4e}
=3
{8g
=4
8g
8e
8g
4g
8f
=5
2e}
8r
=6
{8a
=7
8a
8a
16a
16a
8a
8g
8a
=8
4g
8f
4e}
=9
{8g
=10
8g
8e
8g
4g
8f
=11
2e}
8r
=12
{8a
=13
8a
8a
8a
8a
8g
8a
=14
4g
8f
4e}
=15
{8g
=16
8g
8e
8g
4g
8f
=17
2e}
8r
=18
{8a
=19
8a
8a
8a
8a
8g
8a
=20
4g
8f
4e}
=21
{8g
=22
8g
8e
8g
4g
8f
=23
2e}
8r
==
*-
!!!minrhy: 16
!!!meters: 6/8 ]  ZZ[8
!!!cut: Der junge Husare (31), S. 115f
!!!reg: Luxemburg
!!!trd: Singendes Volk, Esch-Alzette 1937 posth.
!!!rhy1: X_  X_X_XXX_X_X_  X__X_X__
!!!rhy2: X_  X_X_X_X__X_  X___0_
!!!key: T0156  16  E 6/8 ]  ZZ[8
!!!mod: VIERTONSKALA ]  AMBITUS[4
!!!kad: 11111111
!!!akz: 443b1_3b3b11_443b1_3b3b11_443b1_3b3b11_443b1_3b3b11_
!!!fot: 'a__b__a__b__av_b__av_b__
!!!for: 'a__b__a__b__c__b__c__b__
!!!fok: '\__\__\__\__\__\__\__\__
!! PHRAS[AUFTAKTIG]
!!!fkt: Liebeslieder
!!!bem: Blascheid, fff Hitting, 1902
!! THILL, Mathias:
!! PR[26] 2K[0] 2G[6] 3K[17] 3G[6] 4A[6] 4Ü[0] 5A[0] 6K[0] 6G[0]
!! 7K[0] 7G[0] 8A[0] MEHR[0] SI[34] ABS[35] SR[6] SP[29]
!! ST[8] 2k[11] 2g[20] 3k[6] 3g[0] 4d[0] 4ü[0] 5d[3] 6k[0] 6g[0]
!! 7k[0] 7g[0] 8d[0] mehr[0] si[40] dm[-6] sr[31] sp[9]
!! 1F[79] 2F[16] 3F[0] 4F[0] LF[0] 2P[5] 3P[0] 4P[0] TRI[0] DF[3] AB[38]
!! TF[0] U3K[0] U3[0] U4[0] U4Ü[0] U5[3] U6K[0] U6[0] U7K[0] U7[6]
!! N1[6] N2K[0] N2[11] N3K[0] N3[22] N4[19] N4Ü[0] N5[25] N6K[0] N6[8]
!!!n7k: 0] N7[0] O1[0] O2K[0] O2[0] O3K[0] O3[0] HÖ[0
